flaticon/arrows/rewind.svg

<svg xmlns="http://www.w3.org/2000/svg" width="32" height="32" viewBox="0 0 24 24">
    <path d="M 12 0 C 5.382812 0 0 5.382812 0 12 C 0 18.617188 5.382812 24 12 24 C 18.617188 24 24 18.617188 24 12 C 24 5.382812 18.617188 0 12 0 Z M 12 23.109375 C 5.875 23.109375 0.890625 18.125 0.890625 12 C 0.890625 5.875 5.875 0.890625 12 0.890625 C 18.125 0.890625 23.109375 5.875 23.109375 12 C 23.109375 18.125 18.125 23.109375 12 23.109375 Z M 12 23.109375"/>
    <path d="M 7.296875 12 L 12.3125 6.980469 C 12.488281 6.808594 12.488281 6.527344 12.3125 6.351562 C 12.140625 6.179688 11.859375 6.179688 11.6875 6.351562 L 6.574219 11.460938 C 6.277344 11.757812 6.277344 12.242188 6.574219 12.539062 L 11.6875 17.648438 C 11.773438 17.734375 11.886719 17.777344 12 17.777344 C 12.113281 17.777344 12.226562 17.734375 12.3125 17.648438 C 12.488281 17.472656 12.488281 17.191406 12.3125 17.019531 Z M 7.296875 12"/>
    <path d="M 16.757812 6.351562 C 16.585938 6.179688 16.304688 6.179688 16.128906 6.351562 L 11.019531 11.460938 C 10.722656 11.757812 10.722656 12.242188 11.019531 12.539062 L 16.128906 17.648438 C 16.21875 17.734375 16.332031 17.777344 16.445312 17.777344 C 16.558594 17.777344 16.671875 17.734375 16.757812 17.648438 C 16.933594 17.472656 16.933594 17.191406 16.757812 17.019531 L 11.738281 12 L 16.757812 6.980469 C 16.933594 6.808594 16.933594 6.527344 16.757812 6.351562 Z M 16.757812 6.351562"/>
</svg>

<svg xmlns="http://www.w3.org/2000/svg" width="32" height="32" viewBox="0 0 24 24">
    <path d="M12 0C5.383 0 0 5.383 0 12s5.383 12 12 12 12-5.383 12-12S18.617 0 12 0zm0 23.11C5.875 23.11.89 18.124.89 12 .89 5.875 5.876.89 12 .89 18.125.89 23.11 5.876 23.11 12c0 6.125-4.985 11.11-11.11 11.11zm0 0"/>
    <path d="M7.297 12l5.016-5.02a.443.443 0 1 0-.625-.629l-5.114 5.11a.764.764 0 0 0 0 1.078l5.114 5.11a.44.44 0 0 0 .624 0 .44.44 0 0 0 0-.63zm0 0"/>
    <path d="M16.758 6.352a.448.448 0 0 0-.63 0L11.02 11.46a.764.764 0 0 0 0 1.078l5.109 5.11c.09.085.203.128.316.128a.44.44 0 0 0 .313-.129.44.44 0 0 0 0-.628L11.738 12l5.02-5.02a.44.44 0 0 0 0-.628zm0 0"/>
</svg>
